svg/u1f987.svg

<svg viewBox="0 0 128 128" xmlns="http://www.w3.org/2000/svg">
  <radialGradient id="SVGID_1_" cx="63.483" cy="38.467" gradientTransform="matrix(-0.0349 0.9994 -1.8874 -0.0659 138.3001 -22.4421)" gradientUnits="userSpaceOnUse" r="70.7328">
    <stop offset="0.401" stop-color="#7F5950"/>
    <stop offset="0.5119" stop-color="#745147"/>
    <stop offset="0.6813" stop-color="#5B3F33"/>
  </radialGradient>
  <path d="M1.63,84.97c0.26,0.38,6.19-3.1,11.68-1.16c2.85,1.01,5.06,5.46,5.56,5.56 c0.5,0.1,5.05-7.29,12.41-5.96c8.74,1.59,9.26,10.44,9.93,10.62c0.41,0.11,1.49-4.86,7.74-4.37c3.49,0.28,6.35,4.27,8.84,8.44 s6.7,10.97,7.35,11.02c0.89,0.07,6.35-8.54,8.04-11.72c1.69-3.18,5.76-9.33,9.63-9.43c3.87-0.1,5.68,5.94,6.55,5.76 c0.72-0.15,1.06-7.88,7.45-8.84c6.65-0.99,8.43,6.46,9.33,6.35c0.82-0.1,1.44-6.85,9.53-6.95c8.04-0.1,9.58,5.81,10.62,5.66 c1.31-0.19,1.24-23.18-6.95-35.4c-5.66-8.44-13.75-12.89-17.53-14.48c-3.13-1.32-5.76-1.49-5.66-3.18c0.1-1.69,3.67-0.3,4.47-2.58 c0.79-2.28-4.47-3.97-7.15-1.79s-1.09,6.16-1.09,6.16s-0.58,11.62-4.41,17.36c-3,4.5-6.22,5.5-9.95,6.66 c-4.28,1.33-8.67,1.48-14.18,0.98c-4.67-0.42-9.09-0.42-12.85-1.83c-4.26-1.6-7.98-6.57-9.01-9.29c-1.57-4.15-1.5-7.13-1.5-10.79 c0-4.25,0-6.85,0-6.85s2.58-3.38,0.1-6.06s-6.16-1.19-5.86,1.09c0.3,2.28,2.98,0.99,2.68,2.88c-0.3,1.89-5.2,2.39-9.59,4.81 c-6.85,3.77-11.56,6.83-16.89,15.02C3.04,64.79,0.6,83.46,1.63,84.97z" fill="url(#SVGID_1_)"/>
  <path d="M54.61,57.45c0,0,1.56,2.38,0.89,3.72s-2.38,9.16-2.83,16.23c-0.5,7.97,3.43,11.69,3.43,11.69 l-0.67,5.36l3.62,5.78c0,0,4.19-7.87,5.46-7.79c1.27,0.07,6.75,8.29,6.75,8.29l3.03-5.21l-1.07-6.95c0,0,3.13-4.1,3.13-11.32 c0-7.22-2.31-15.27-2.38-16.38c-0.07-1.12,1.49-3.18,1.49-3.18s3.42,1.32,5.96-1.64c3.23-3.77,3.44-13.26,0.65-18.72 c-2.13-4.17-4.17-6.21-4.91-6.35c-0.74-0.15-3.77,4.37-5.16,8.14C70.6,42.91,70,46.28,70,46.28s-1.54-1.06-4.42-1.39 c-2.18-0.25-3.92,0.25-3.92,0.25s0.15-4.22-0.4-7.25c-0.55-3.03-1.59-7.4-2.98-7.79c-1.39-0.4-6.27,5.43-7.74,7.55 c-1.94,2.78-6.83,10.15-1.37,16.75C51.82,57.6,54.61,57.45,54.61,57.45z" fill="#885B50"/>
  <path d="M64.07,91.33c1.86-0.3,7.97-3.57,8.44-10.47c0.53-7.68-3.97-16.38-8.19-16.53 c-4.37-0.15-8.71,9.93-8.19,16.03C56.82,88.5,64.07,91.33,64.07,91.33z" fill="#B68E74"/>
  <path d="M72.33,47.67c0,0,0.6-3.92,2.38-7.6c0.92-1.9,1.99-3.82,3.47-3.72c1.49,0.1,3.57,4.86,3.57,10.08 s-0.69,7.4-2.88,8.59c-1.99,1.08-3.08,0.4-3.08,0.4s-0.3-3.23-1.09-4.67C73.92,49.31,72.33,47.67,72.33,47.67z" fill="#FFD2AD"/>
  <path d="M57.44,34.47c-1.02-0.2-5.24,4.15-6.8,7.15c-1.79,3.43-2.8,7.27-0.35,10.55 c1.54,2.05,3.97,1.37,3.97,1.37s0.35-2.53,1.89-4.62c1.5-2.03,3.13-2.78,3.13-2.78S59.72,34.91,57.44,34.47z" fill="#FFD2AD"/>
  <path d="M62.24,58.61c0,0-2.57-0.89-2.35,0.41c0.22,1.3,0.78,3.31,1.68,3.2S62.24,58.61,62.24,58.61z" fill="#FEFEFE"/>
  <path d="M65.63,58.42c0,0-0.11,3.43,0.78,3.91c0.89,0.48,1.97-3.61,1.75-4.28S65.63,58.42,65.63,58.42z" fill="#FEFEFE"/>
  <path d="M63.92,56.52c-0.89,0.02-1.19,1.95-2.57,1.19c-1.05-0.58,0.16-1.77-1.03-1.92 c-1.05-0.13-1.2,0.84-0.94,1.81c0.26,0.97,0.52,1.9,2.27,2.05c1.75,0.15,2.35-0.89,2.35-0.89s0.84,1,2.06,0.98 c1.86-0.02,2.29-1.66,2.63-2.17c0.52-0.78-0.62-2-1.34-0.82c-0.72,1.18-1.69,1.15-2.23,0.67C64.77,57.11,64.59,56.51,63.92,56.52z" fill="#020308"/>
  <path d="M63.29,53.17c-0.63-0.18-1.27,0.48-1.53,1.27c-0.26,0.78-0.26,1.5,0.26,1.86 c0.71,0.48,1.49-0.56,1.68-1.08S64.18,53.43,63.29,53.17z" fill="#B68E74"/>
  <path d="M65.97,53.1c-0.71,0-1.04,0.56-1.04,1.68c0,1.12,0.22,1.41,0.93,1.56c0.71,0.15,1.01-1.15,1.01-1.79 S66.75,53.1,65.97,53.1z" fill="#B68E74"/>
  <ellipse cx="71.24" cy="54.15" fill="#020204" rx="2" ry="2.12"/>
  <ellipse cx="58.09" cy="53.48" fill="#020204" rx="2" ry="2.12"/>
</svg>

<svg viewBox="0 0 128 128" xmlns="http://www.w3.org/2000/svg">
  <defs>
    <radialGradient id="SVGID_1_" cx="36.228906" cy="-34.304502" gradientTransform="matrix(-0.0349 0.9994 -1.8874 -0.0659 0 0)" gradientUnits="userSpaceOnUse" r="70.7328">
      <stop offset="0.401" stop-color="#7F5950"/>
      <stop offset="0.5119" stop-color="#745147"/>
      <stop offset="0.6813" stop-color="#5B3F33"/>
    </radialGradient>
  </defs>
  <path d="M1.63,84.97 C1.89,85.35 7.82,81.87 13.31,83.81 C16.16,84.82 18.37,89.27 18.87,89.37 C19.37,89.47 23.92,82.08 31.28,83.41 C40.02,85 40.54,93.85 41.21,94.03 C41.62,94.14 42.7,89.17 48.95,89.66 C52.44,89.94 55.3,93.93 57.79,98.1 C60.28,102.27 64.49,109.07 65.14,109.12 C66.03,109.19 71.49,100.58 73.18,97.4 C74.87,94.22 78.94,88.07 82.81,87.97 C86.68,87.87 88.49,93.91 89.36,93.73 C90.08,93.58 90.42,85.85 96.81,84.89 C103.46,83.9 105.24,91.35 106.14,91.24 C106.96,91.14 107.58,84.39 115.67,84.29 C123.71,84.19 125.25,90.1 126.29,89.95 C127.6,89.76 127.53,66.77 119.34,54.55 C113.68,46.11 105.59,41.66 101.81,40.07 C98.68,38.75 96.05,38.58 96.15,36.89 C96.25,35.2 99.82,36.59 100.62,34.31 C101.41,32.03 96.15,30.34 93.47,32.52 C90.79,34.7 92.38,38.68 92.38,38.68 C92.38,38.68 91.8,50.3 87.97,56.04 C84.97,60.54 81.75,61.54 78.02,62.7 C73.74,64.03 69.35,64.18 63.84,63.68 C59.17,63.26 54.75,63.26 50.99,61.85 C46.73,60.25 43.01,55.28 41.98,52.56 C40.41,48.41 40.48,45.43 40.48,41.77 C40.48,37.52 40.48,34.92 40.48,34.92 C40.48,34.92 43.06,31.54 40.58,28.86 C38.1,26.18 34.42,27.67 34.72,29.95 C35.02,32.23 37.7,30.94 37.4,32.83 C37.1,34.72 32.2,35.22 27.81,37.64 C20.96,41.41 16.25,44.47 10.92,52.66 C3.04,64.79 0.6,83.46 1.63,84.97 Z" fill="url(#SVGID_1_)"/>
  <path d="M54.61,57.45 C54.61,57.45 56.17,59.83 55.5,61.17 C54.83,62.51 53.12,70.33 52.67,77.4 C52.17,85.37 56.1,89.09 56.1,89.09 L55.43,94.45 L59.05,100.23 C59.05,100.23 63.24,92.36 64.51,92.44 C65.78,92.51 71.26,100.73 71.26,100.73 L74.29,95.52 L73.22,88.57 C73.22,88.57 76.35,84.47 76.35,77.25 C76.35,70.03 74.04,61.98 73.97,60.87 C73.9,59.75 75.46,57.69 75.46,57.69 C75.46,57.69 78.88,59.01 81.42,56.05 C84.65,52.28 84.86,42.79 82.07,37.33 C79.94,33.16 77.9,31.12 77.16,30.98 C76.42,30.83 73.39,35.35 72,39.12 C70.6,42.91 70,46.28 70,46.28 C70,46.28 68.46,45.22 65.58,44.89 C63.4,44.64 61.66,45.14 61.66,45.14 C61.66,45.14 61.81,40.92 61.26,37.89 C60.71,34.86 59.67,30.49 58.28,30.1 C56.89,29.7 52.01,35.53 50.54,37.65 C48.6,40.43 43.71,47.8 49.17,54.4 C51.82,57.6 54.61,57.45 54.61,57.45 Z" fill="#885B50"/>
  <path d="M64.07,91.33 C65.93,91.03 72.04,87.76 72.51,80.86 C73.04,73.18 68.54,64.48 64.32,64.33 C59.95,64.18 55.61,74.26 56.13,80.36 C56.82,88.5 64.07,91.33 64.07,91.33 Z" fill="#B68E74"/>
  <path d="M72.33,47.67 C72.33,47.67 72.93,43.75 74.71,40.07 C75.63,38.17 76.7,36.25 78.18,36.35 C79.67,36.45 81.75,41.21 81.75,46.43 C81.75,51.65 81.06,53.83 78.87,55.02 C76.88,56.1 75.79,55.42 75.79,55.42 C75.79,55.42 75.49,52.19 74.7,50.75 C73.92,49.31 72.33,47.67 72.33,47.67 Z" fill="#FFD2AD"/>
  <path d="M57.44,34.47 C56.42,34.27 52.2,38.62 50.64,41.62 C48.85,45.05 47.84,48.89 50.29,52.17 C51.83,54.22 54.26,53.54 54.26,53.54 C54.26,53.54 54.61,51.01 56.15,48.92 C57.65,46.89 59.28,46.14 59.28,46.14 C59.28,46.14 59.72,34.91 57.44,34.47 Z" fill="#FFD2AD"/>
  <path d="M62.24,58.61 C62.24,58.61 59.67,57.72 59.89,59.02 C60.11,60.32 60.67,62.33 61.57,62.22 C62.47,62.11 62.24,58.61 62.24,58.61 Z" fill="#FEFEFE"/>
  <path d="M65.63,58.42 C65.63,58.42 65.52,61.85 66.41,62.33 C67.3,62.81 68.38,58.72 68.16,58.05 C67.94,57.38 65.63,58.42 65.63,58.42 Z" fill="#FEFEFE"/>
  <path d="M63.92,56.52 C63.03,56.54 62.73,58.47 61.35,57.71 C60.3,57.13 61.51,55.94 60.32,55.79 C59.27,55.66 59.12,56.63 59.38,57.6 C59.64,58.57 59.9,59.5 61.65,59.65 C63.4,59.8 64,58.76 64,58.76 C64,58.76 64.84,59.76 66.06,59.74 C67.92,59.72 68.35,58.08 68.69,57.57 C69.21,56.79 68.07,55.57 67.35,56.75 C66.63,57.93 65.66,57.9 65.12,57.42 C64.77,57.11 64.59,56.51 63.92,56.52 Z" fill="#020308"/>
  <path d="M63.29,53.17 C62.66,52.99 62.02,53.65 61.76,54.44 C61.5,55.22 61.5,55.94 62.02,56.3 C62.73,56.78 63.51,55.74 63.7,55.22 C63.89,54.7 64.18,53.43 63.29,53.17 Z" fill="#B68E74"/>
  <path d="M65.97,53.1 C65.26,53.1 64.93,53.66 64.93,54.78 C64.93,55.9 65.15,56.19 65.86,56.34 C66.57,56.49 66.87,55.19 66.87,54.55 C66.87,53.91 66.75,53.1 65.97,53.1 Z" fill="#B68E74"/>
  <path d="M73.24,54.15 A2 2.12 0 1 1 69.24,54.15 A2 2.12 0 1 1 73.24,54.15 Z" fill="#020204"/>
  <path d="M60.09,53.48 A2 2.12 0 1 1 56.09,53.48 A2 2.12 0 1 1 60.09,53.48 Z" fill="#020204"/>
</svg>
